X:171
T:Tit For Tat. HSJJ.173
M:6/8
L:1/8
Q:3/8=120
S:HSJ Jackson,Wyresdale,Lancs.1823
R:.Jig
O:England
A:Lancashire
H:1823
Z:vmp.Chris Partington.
K:D
d2dA2A|BcBA2A|dcde2f|gagf2e|!
d2dA2A|BcBA2A|dcd efg|f2ed3:|!
fgaa3|fgaa3|fgab2a|g2fe2d|!
fgaa3|fgaa3|fgab2a|g2f” DC”e3|]

